; generated by PrusaSlicer 2.4.0+win64 on 2022-03-27 at 18:26:08 UTC

; 

; external perimeters extrusion width = 0.45mm
; perimeters extrusion width = 0.45mm
; infill extrusion width = 0.45mm
; solid infill extrusion width = 0.45mm
; top infill extrusion width = 0.40mm
; first layer extrusion width = 0.42mm

M201 X9000 Y9000 Z500 E10000 ; sets maximum accelerations, mm/sec^2
M203 X500 Y500 Z12 E120 ; sets maximum feedrates, mm/sec
M204 P1500 R1500 T1500 ; sets acceleration (P, T) and retract acceleration (R), mm/sec^2
M205 X10.00 Y10.00 Z0.20 E2.50 ; sets the jerk limits, mm/sec
M205 S0 T0 ; sets the minimum extruding and travel feed rate, mm/sec
M107
;TYPE:Custom
;M502          ; Reset settings to configuration defaults...
;M500         ; ...and Save to EEPROM. Use this on a new install.  
;M501          ; Read back in the saved EEPROM.

M190 S65      ; Not required, but having the printer at temperature helps accuracy
M104 S210     ; Not required, but having the printer at temperature helps accuracy

G28           ; Home XYZ.
G29 P1        ; Do automated probing of the bed. ; 
;G29 P2 B T  ; Manual probing of locations. USUALLY NOT NEEDED! 
G29 P3 T      ; Repeat until all mesh points are filled in.

G29 T         ; View the Z compensation values.
G29 S1        ; Save UBL mesh points to EEPROM.
G29 F 10.0    ; Set Fade Height for correction at 10.0 mm.
G29 A         ; Activate the UBL System.
M500          ; Save current setup. WARNING - UBL will be active at power up, before any G28.
G21 ; set units to millimeters
G90 ; use absolute coordinates
M82 ; use absolute distances for extrusion
G92 E0
; Filament gcode
M107
;LAYER_CHANGE
;Z:0.3
;HEIGHT:0.3
G1 Z.3 F3000
G1 E-.5 F1200
G92 E0
G1 Z.5 F3000
G1 X65.473 Y74.464
G1 Z.3
G1 E.5 F1200
;TYPE:Skirt/Brim
;WIDTH:0.42
G1 F600
G1 X67.361 Y73.136 E.60239
G1 X70.218 Y72.498 E.73223
G1 X109.782 Y72.498 E2.48706
G1 X112.056 Y72.895 E2.58945
G1 X114.527 Y74.464 E2.71929
G1 X117.456 Y77.393 E2.90301
G1 X118.783 Y79.281 E3.00541
G1 X119.422 Y82.138 E3.13524
G1 X119.422 Y89.88 E3.47865
G1 X119.025 Y92.154 E3.58104
G1 X117.456 Y94.626 E3.71088
G1 X114.527 Y97.555 E3.8946
G1 X112.357 Y99.007 E4.01041
G1 X95.023 Y106.21 E4.84302
G1 X92.582 Y106.969 E4.95638
G1 X91.351 Y107.225 E5.01216
G1 X89.161 Y107.486 E5.10998
G1 X87.297 Y107.502 E5.19266
G1 X86.042 Y107.416 E5.24844
G1 X83.873 Y107.079 E5.34581
G1 X82.064 Y106.589 E5.42894
G1 X80.879 Y106.168 E5.48472
G1 X78.715 Y105.17 E5.59045
G1 X66.973 Y98.684 E6.18541
G1 X65.473 Y97.555 E6.2687
G1 X62.544 Y94.626 E6.45242
G1 X61.217 Y92.737 E6.55481
G1 X60.578 Y89.88 E6.68465
G1 X60.578 Y82.138 E7.02805
G1 X60.975 Y79.864 E7.13045
G1 X62.544 Y77.393 E7.26029
G1 X65.43 Y74.506 E7.44135
G1 X65.682 Y74.758 F3000
G1 F600
G1 X67.568 Y73.433 E7.54359
G1 X70.218 Y72.854 E7.66391
G1 X109.782 Y72.854 E9.41874
G1 X111.992 Y73.251 E9.51837
G1 X114.276 Y74.715 E9.63869
G1 X117.205 Y77.644 E9.82242
G1 X118.487 Y79.488 E9.92204
G1 X119.066 Y82.138 E10.04236
G1 X119.066 Y89.88 E10.38576
G1 X118.669 Y92.091 E10.48538
G1 X117.205 Y94.374 E10.60571
G1 X114.276 Y97.303 E10.78943
G1 X112.221 Y98.678 E10.89911
G1 X94.576 Y106.001 E11.74648
G1 X92.486 Y106.626 E11.84321
G1 X91.302 Y106.872 E11.89684
G1 X89.137 Y107.131 E11.99358
G1 X87.297 Y107.146 E12.07519
G1 X86.091 Y107.064 E12.12881
G1 X83.945 Y106.731 E12.22511
G1 X82.16 Y106.247 E12.30716
G1 X81.021 Y105.842 E12.36079
G1 X78.887 Y104.859 E12.46501
G1 X67.145 Y98.373 E13.05998
G1 X65.724 Y97.303 E13.13885
G1 X62.795 Y94.374 E13.32258
G1 X61.513 Y92.531 E13.4222
G1 X60.934 Y89.88 E13.54252
G1 X60.934 Y82.138 E13.88593
G1 X61.331 Y79.928 E13.98555
G1 X62.795 Y77.644 E14.10587
G1 X65.639 Y74.8 E14.28427
G1 E13.78427 F1200
G92 E0
G1 Z.5 F3000
G1 X69.316 Y80.418
G1 Z.3
G1 E.5 F1200
G1 F600
G1 X70.302 Y79.803 E.55156
G1 X71.401 Y79.463 E.6026
G1 X83.334 Y79.417 E1.13186
G1 X84.449 Y79.667 E1.18255
G1 X85.487 Y80.195 E1.23422
G1 X86.722 Y81.397 E1.31064
G1 X87.465 Y82.93 E1.38623
G1 X87.599 Y83.785 E1.42461
G1 X87.601 Y87.808 E1.60304
G1 X87.624 Y88.068 E1.61461
G1 X87.677 Y88.214 E1.62153
G1 X87.854 Y88.363 E1.63179
G1 X88.016 Y88.392 E1.63908
G1 X88.233 Y88.313 E1.64934
G1 X88.329 Y88.199 E1.65591
G1 X88.376 Y88.068 E1.66211
G1 X88.399 Y87.808 E1.67366
G1 X88.399 Y83.81 E1.85103
G1 X88.603 Y82.718 E1.90028
G1 X89.325 Y81.329 E1.96972
G1 X90.202 Y80.428 E2.02548
G1 X91.264 Y79.783 E2.08058
G1 X92.653 Y79.417 E2.14432
G1 X108.248 Y79.418 E2.83603
G1 X109.585 Y79.756 E2.89721
G1 X110.779 Y80.485 E2.95922
G1 X111.683 Y81.464 E3.01835
G1 X112.143 Y82.29 E3.06026
G1 X112.434 Y83.172 E3.10148
G1 X112.509 Y88.229 E3.32581
G1 X112.393 Y89.027 E3.3616
G1 X111.785 Y90.4 E3.42816
G1 X110.736 Y91.568 E3.4978
G1 X109.648 Y92.235 E3.55441
G1 X108.393 Y92.584 E3.61219
G1 X99.708 Y92.608 E3.99742
G1 X99.524 Y93.106 E4.02098
G1 X98.722 Y94.628 E4.09727
G1 X97.752 Y95.989 E4.17141
G1 X96.611 Y97.208 E4.24546
G1 X95.265 Y98.304 E4.32243
G1 X93.785 Y99.203 E4.39924
G1 X92.237 Y99.876 E4.47413
G1 X90.609 Y100.336 E4.54916
G1 X88.823 Y100.582 E4.62913
G1 X87.008 Y100.57 E4.70963
G1 X85.412 Y100.341 E4.78117
G1 X83.853 Y99.907 E4.85292
G1 X82.3 Y99.247 E4.92778
G1 X80.828 Y98.369 E5.00379
G1 X79.477 Y97.29 E5.08051
G1 X78.24 Y95.977 E5.16051
G1 X77.192 Y94.487 E5.24131
G1 X76.481 Y93.116 E5.3098
G1 X76.292 Y92.606 E5.33393
G1 X71.706 Y92.596 E5.53735
G1 X70.569 Y92.325 E5.58921
G1 X69.361 Y91.643 E5.65075
G1 X68.37 Y90.623 E5.71381
G1 X67.889 Y89.808 E5.75578
G1 X67.567 Y88.84 E5.80105
G1 X67.507 Y83.582 E6.03426
G1 X67.778 Y82.478 E6.0847
G1 X68.398 Y81.356 E6.14155
G1 X69.274 Y80.461 E6.1971
G1 X69.526 Y80.71 F3000
G1 F600
G1 X70.429 Y80.136 E6.24457
G1 X71.481 Y79.81 E6.29341
G1 X83.314 Y79.772 E6.81827
G1 X84.347 Y80.008 E6.86526
G1 X85.301 Y80.499 E6.91284
G1 X86.416 Y81.581 E6.98178
G1 X87.118 Y83.013 E7.0525
G1 X87.243 Y83.799 E7.08782
G1 X87.245 Y87.824 E7.26631
G1 X87.273 Y88.145 E7.28064
G1 X87.359 Y88.38 E7.29169
G1 X87.524 Y88.577 E7.3031
G1 X87.747 Y88.705 E7.31451
G1 X88 Y88.75 E7.32592
G1 X88.253 Y88.705 E7.33733
G1 X88.476 Y88.577 E7.34874
G1 X88.641 Y88.38 E7.36015
G1 X88.727 Y88.145 E7.3712
G1 X88.755 Y87.824 E7.38552
G1 X88.755 Y83.825 E7.56287
G1 X88.932 Y82.856 E7.60656
G1 X89.6 Y81.556 E7.67139
G1 X90.407 Y80.72 E7.72294
G1 X91.426 Y80.101 E7.77586
G1 X92.676 Y79.772 E7.83317
G1 X108.226 Y79.773 E8.52286
G1 X109.471 Y80.093 E8.57989
G1 X110.535 Y80.745 E8.63524
G1 X111.383 Y81.656 E8.69045
G1 X111.824 Y82.447 E8.73062
G1 X112.088 Y83.256 E8.76836
G1 X112.155 Y88.194 E8.98741
G1 X112.056 Y88.909 E9.0194
G1 X111.5 Y90.185 E9.08115
G1 X110.527 Y91.278 E9.14607
G1 X109.484 Y91.918 E9.20036
G1 X108.323 Y92.235 E9.25374
G1 X99.458 Y92.253 E9.64691
G1 X99.203 Y92.951 E9.67992
G1 X98.425 Y94.432 E9.75408
G1 X97.484 Y95.755 E9.82612
G1 X96.377 Y96.94 E9.89805
G1 X95.07 Y98.006 E9.97285
G1 X93.611 Y98.892 E10.04856
G1 X92.107 Y99.545 E10.1213
G1 X90.525 Y99.991 E10.19419
G1 X88.788 Y100.228 E10.27197
G1 X87.047 Y100.217 E10.34918
G1 X85.474 Y99.99 E10.41967
G1 X83.96 Y99.568 E10.48937
G1 X82.451 Y98.924 E10.56215
G1 X81.021 Y98.07 E10.63602
G1 X79.709 Y97.02 E10.71057
G1 X78.508 Y95.743 E10.78835
G1 X77.502 Y94.313 E10.86588
G1 X76.802 Y92.963 E10.93333
G1 X76.542 Y92.251 E10.96695
G1 X71.727 Y92.24 E11.1805
G1 X70.722 Y92.003 E11.22633
G1 X69.558 Y91.346 E11.28558
G1 X68.642 Y90.393 E11.34426
G1 X68.206 Y89.646 E11.3826
G1 X67.913 Y88.756 E11.42417
G1 X67.863 Y83.601 E11.6528
G1 X68.101 Y82.629 E11.69718
G1 X68.697 Y81.55 E11.75188
G1 X69.484 Y80.753 E11.80156
G1 X69.737 Y81.003 F3000
G1 F600
G1 X69.791 Y80.948 E11.80499
G1 X70.596 Y80.451 E11.84693
G1 X71.559 Y80.158 E11.89158
G1 X83.294 Y80.128 E12.41209
G1 X84.244 Y80.349 E12.45535
G1 X85.113 Y80.802 E12.49879
G1 X86.146 Y81.814 E12.56292
G1 X86.772 Y83.096 E12.62621
G1 X86.888 Y83.814 E12.65849
G1 X86.89 Y87.839 E12.83702
G1 X86.921 Y88.2 E12.85307
G1 X86.971 Y88.384 E12.86154
G1 X87.051 Y88.557 E12.87001
G1 X87.161 Y88.714 E12.87848
G1 X87.296 Y88.849 E12.88695
G1 X87.452 Y88.958 E12.89542
G1 X87.625 Y89.039 E12.90389
G1 X87.81 Y89.088 E12.91236
G1 X88 Y89.105 E12.92083
G1 X88.19 Y89.088 E12.9293
G1 X88.375 Y89.039 E12.93777
G1 X88.548 Y88.958 E12.94624
G1 X88.704 Y88.849 E12.95471
G1 X88.839 Y88.713 E12.96318
G1 X88.949 Y88.557 E12.97165
G1 X89.029 Y88.384 E12.98012
G1 X89.079 Y88.2 E12.98859
G1 X89.11 Y87.839 E13.00462
G1 X89.11 Y83.841 E13.18199
G1 X89.261 Y82.993 E13.22017
G1 X89.874 Y81.784 E13.28031
G1 X90.646 Y80.984 E13.32961
G1 X91.587 Y80.419 E13.37831
G1 X92.699 Y80.128 E13.42926
G1 X108.203 Y80.129 E14.11697
G1 X109.31 Y80.411 E14.16762
G1 X110.293 Y81.006 E14.21859
G1 X111.083 Y81.849 E14.26982
G1 X111.505 Y82.605 E14.30821
G1 X111.741 Y83.339 E14.34243
G1 X111.801 Y88.162 E14.55636
G1 X111.719 Y88.793 E14.58457
G1 X111.214 Y89.972 E14.64148
G1 X110.318 Y90.989 E14.7016
G1 X109.32 Y91.601 E14.75352
G1 X108.254 Y91.885 E14.80247
G1 X99.208 Y91.897 E15.20368
G1 X98.882 Y92.797 E15.24614
G1 X98.128 Y94.236 E15.31818
G1 X97.216 Y95.521 E15.38811
G1 X96.142 Y96.672 E15.45791
G1 X94.855 Y97.723 E15.53161
G1 X93.438 Y98.582 E15.60513
G1 X91.977 Y99.213 E15.67573
G1 X90.44 Y99.645 E15.7465
G1 X88.777 Y99.873 E15.82097
G1 X87.085 Y99.863 E15.89602
G1 X85.558 Y99.645 E15.96443
G1 X84.067 Y99.229 E16.03309
G1 X82.602 Y98.602 E16.10377
G1 X81.214 Y97.771 E16.1755
G1 X79.941 Y96.75 E16.24788
G1 X78.775 Y95.508 E16.32344
G1 X77.812 Y94.138 E16.39773
G1 X77.123 Y92.81 E16.46412
G1 X76.792 Y91.896 E16.50723
G1 X71.748 Y91.885 E16.73095
G1 X70.872 Y91.68 E16.77083
G1 X69.796 Y91.08 E16.82548
G1 X68.913 Y90.162 E16.88198
G1 X68.524 Y89.486 E16.91661
G1 X68.26 Y88.672 E16.95453
G1 X68.219 Y83.62 E17.17861
G1 X68.424 Y82.779 E17.21704
G1 X68.968 Y81.782 E17.26741
G1 X69.695 Y81.046 E17.3133
G1 X69.948 Y81.296 F3000
G1 F600
G1 X70.03 Y81.213 E17.31846
G1 X70.721 Y80.784 E17.35455
G1 X71.637 Y80.506 E17.39701
G1 X83.273 Y80.484 E17.91313
G1 X84.139 Y80.69 E17.95259
G1 X84.923 Y81.103 E17.9919
G1 X85.873 Y82.044 E18.0512
G1 X86.439 Y83.225 E18.10928
G1 X86.532 Y83.827 E18.13632
G1 X86.534 Y87.855 E18.31497
G1 X86.57 Y88.262 E18.33308
G1 X86.635 Y88.506 E18.34431
G1 X86.742 Y88.736 E18.35554
G1 X86.887 Y88.943 E18.36677
G1 X87.066 Y89.122 E18.378
G1 X87.274 Y89.267 E18.38923
G1 X87.503 Y89.374 E18.40046
G1 X87.748 Y89.44 E18.41169
G1 X88 Y89.462 E18.42292
G1 X88.252 Y89.44 E18.43415
G1 X88.497 Y89.374 E18.44538
G1 X88.726 Y89.267 E18.45661
G1 X88.934 Y89.122 E18.46784
G1 X89.113 Y88.943 E18.47907
G1 X89.258 Y88.736 E18.4903
G1 X89.365 Y88.506 E18.50153
G1 X89.43 Y88.262 E18.51276
G1 X89.466 Y87.855 E18.53086
G1 X89.466 Y83.855 E18.70827
G1 X89.591 Y83.128 E18.74101
G1 X90.15 Y82.009 E18.79648
G1 X90.85 Y81.276 E18.84142
G1 X91.748 Y80.737 E18.8879
G1 X92.721 Y80.484 E18.93249
G1 X108.181 Y80.484 E19.61822
G1 X109.15 Y80.73 E19.66255
G1 X110.052 Y81.269 E19.70916
G1 X110.783 Y82.042 E19.75634
G1 X111.185 Y82.762 E19.79291
G1 X111.394 Y83.421 E19.82358
G1 X111.445 Y88.153 E20.03348
G1 X111.37 Y88.721 E20.05889
G1 X110.9 Y89.804 E20.11124
G1 X110.071 Y90.732 E20.16643
G1 X109.159 Y91.284 E20.21374
G1 X108.231 Y91.529 E20.25632
G1 X98.958 Y91.542 E20.66761
G1 X98.562 Y92.643 E20.71953
G1 X97.831 Y94.04 E20.78944
G1 X96.947 Y95.288 E20.85727
G1 X95.908 Y96.405 E20.92494
G1 X94.66 Y97.425 E20.99644
G1 X93.264 Y98.271 E21.06885
G1 X91.847 Y98.882 E21.13728
G1 X90.357 Y99.299 E21.20592
G1 X88.742 Y99.519 E21.27822
G1 X87.123 Y99.509 E21.34999
G1 X85.62 Y99.294 E21.41735
G1 X84.175 Y98.89 E21.48393
G1 X82.753 Y98.28 E21.55252
G1 X81.408 Y97.473 E21.62211
G1 X80.174 Y96.481 E21.69232
G1 X79.044 Y95.274 E21.76567
G1 X78.122 Y93.964 E21.83672
G1 X77.444 Y92.656 E21.90205
G1 X77.042 Y91.541 E21.95466
G1 X71.768 Y91.529 E22.18856
G1 X71.021 Y91.357 E22.22257
G1 X70.033 Y90.814 E22.27256
G1 X69.186 Y89.932 E22.32683
G1 X68.843 Y89.327 E22.35768
G1 X68.607 Y88.59 E22.39199
G1 X68.575 Y83.64 E22.61156
G1 X68.748 Y82.926 E22.64413
G1 X69.239 Y82.013 E22.69013
G1 X69.906 Y81.338 E22.7322
G1 X70.156 Y81.589 F3000
G1 F600
G1 X70.266 Y81.479 E22.7391
G1 X70.847 Y81.118 E22.76944
G1 X71.716 Y80.854 E22.80969
G1 X83.253 Y80.839 E23.32144
G1 X83.993 Y81.015 E23.35516
G1 X84.734 Y81.406 E23.39232
G1 X85.567 Y82.227 E23.44422
G1 X86.092 Y83.307 E23.49746
G1 X86.176 Y83.841 E23.52147
G1 X86.178 Y87.87 E23.70017
G1 X86.218 Y88.324 E23.72035
G1 X86.3 Y88.628 E23.73434
G1 X86.433 Y88.914 E23.74833
G1 X86.614 Y89.172 E23.76232
G1 X86.837 Y89.395 E23.77631
G1 X87.095 Y89.576 E23.7903
G1 X87.381 Y89.71 E23.80429
G1 X87.686 Y89.791 E23.81828
G1 X88 Y89.819 E23.83227
G1 X88.314 Y89.791 E23.84626
G1 X88.619 Y89.71 E23.86025
G1 X88.905 Y89.576 E23.87424
G1 X89.163 Y89.395 E23.88823
G1 X89.386 Y89.172 E23.90222
G1 X89.567 Y88.914 E23.91621
G1 X89.7 Y88.628 E23.9302
G1 X89.782 Y88.324 E23.94419
G1 X89.822 Y87.871 E23.96436
G1 X89.822 Y83.869 E24.14184
G1 X89.922 Y83.26 E24.16922
G1 X90.427 Y82.235 E24.21991
G1 X91.09 Y81.54 E24.26252
G1 X91.907 Y81.056 E24.30466
G1 X92.744 Y80.839 E24.34297
G1 X108.16 Y80.84 E25.02674
G1 X108.992 Y81.05 E25.06482
G1 X109.813 Y81.533 E25.10708
G1 X110.484 Y82.235 E25.15014
G1 X110.865 Y82.919 E25.18486
G1 X111.046 Y83.501 E25.21192
G1 X111.089 Y88.143 E25.41782
G1 X111.021 Y88.648 E25.44042
G1 X110.587 Y89.633 E25.48816
G1 X109.827 Y90.473 E25.53841
G1 X108.999 Y90.965 E25.58112
G1 X108.208 Y91.174 E25.61743
G1 X98.707 Y91.187 E26.03881
G1 X98.241 Y92.49 E26.10021
G1 X97.534 Y93.845 E26.16799
G1 X96.678 Y95.055 E26.23372
G1 X95.673 Y96.137 E26.29924
G1 X94.445 Y97.142 E26.36963
G1 X93.09 Y97.961 E26.43981
G1 X91.718 Y98.551 E26.50609
G1 X90.273 Y98.953 E26.57261
G1 X88.706 Y99.165 E26.64272
G1 X87.161 Y99.155 E26.71126
G1 X85.705 Y98.949 E26.77652
G1 X84.282 Y98.55 E26.84205
G1 X82.905 Y97.958 E26.90853
G1 X81.602 Y97.174 E26.97598
G1 X80.407 Y96.212 E27.04402
G1 X79.312 Y95.041 E27.11516
G1 X78.433 Y93.79 E27.18298
G1 X77.765 Y92.503 E27.24725
G1 X77.292 Y91.186 E27.30935
G1 X71.79 Y91.174 E27.5534
G1 X71.128 Y91.017 E27.58358
G1 X70.231 Y90.517 E27.62913
G1 X69.46 Y89.705 E27.67883
G1 X69.163 Y89.171 E27.70592
G1 X68.954 Y88.51 E27.73667
G1 X68.93 Y83.661 E27.95171
G1 X69.087 Y83.036 E27.98032
G1 X69.539 Y82.206 E28.0222
G1 X70.114 Y81.631 E28.05828
G1 X70.362 Y81.884 F3000
G1 F600
G1 X70.502 Y81.746 E28.06696
G1 X70.973 Y81.451 E28.09162
G1 X71.794 Y81.202 E28.12966
G1 X83.231 Y81.195 E28.63697
G1 X83.886 Y81.355 E28.66684
G1 X84.542 Y81.706 E28.69987
G1 X85.294 Y82.457 E28.74702
G1 X85.745 Y83.389 E28.79294
G1 X85.821 Y83.856 E28.81393
G1 X85.823 Y87.886 E28.99267
G1 X85.866 Y88.386 E29.01491
G1 X85.964 Y88.75 E29.03166
G1 X86.124 Y89.093 E29.04841
G1 X86.34 Y89.402 E29.06516
G1 X86.607 Y89.669 E29.08191
G1 X86.917 Y89.886 E29.09866
G1 X87.259 Y90.045 E29.11541
G1 X87.624 Y90.143 E29.13216
G1 X88 Y90.176 E29.14891
G1 X88.376 Y90.143 E29.16566
G1 X88.741 Y90.045 E29.18241
G1 X89.083 Y89.886 E29.19916
G1 X89.393 Y89.669 E29.21591
G1 X89.66 Y89.402 E29.23266
G1 X89.876 Y89.093 E29.24941
G1 X90.036 Y88.75 E29.26616
G1 X90.134 Y88.386 E29.28291
G1 X90.177 Y87.886 E29.30515
G1 X90.177 Y83.882 E29.48274
G1 X90.254 Y83.39 E29.50484
G1 X90.704 Y82.46 E29.55066
G1 X91.33 Y81.804 E29.59087
G1 X92.065 Y81.375 E29.62861
G1 X92.766 Y81.195 E29.66073
G1 X108.138 Y81.196 E30.34256
G1 X108.836 Y81.37 E30.37447
G1 X109.575 Y81.799 E30.41238
G1 X110.185 Y82.429 E30.45126
G1 X110.545 Y83.075 E30.48406
G1 X110.699 Y83.58 E30.50747
G1 X110.734 Y88.133 E30.70941
G1 X110.673 Y88.573 E30.72916
G1 X110.275 Y89.46 E30.77226
G1 X109.584 Y90.212 E30.81755
G1 X108.841 Y90.646 E30.8557
G1 X108.184 Y90.818 E30.88582
G1 X98.456 Y90.831 E31.31731
G1 X97.919 Y92.337 E31.3882
G1 X97.236 Y93.649 E31.45384
G1 X96.409 Y94.822 E31.51747
G1 X95.438 Y95.87 E31.58083
G1 X94.229 Y96.858 E31.65011
G1 X92.918 Y97.65 E31.71806
G1 X91.589 Y98.219 E31.78219
G1 X90.213 Y98.602 E31.84551
G1 X88.671 Y98.811 E31.91453
G1 X87.199 Y98.802 E31.97983
G1 X85.789 Y98.603 E32.04299
G1 X84.389 Y98.211 E32.10746
G1 X83.057 Y97.636 E32.17181
G1 X81.796 Y96.876 E32.23713
G1 X80.64 Y95.944 E32.303
