; generated by PrusaSlicer 2.4.0+win64 on 2022-03-29 at 13:47:21 UTC

; 

; external perimeters extrusion width = 0.45mm
; perimeters extrusion width = 0.45mm
; infill extrusion width = 0.45mm
; solid infill extrusion width = 0.45mm
; top infill extrusion width = 0.40mm
; first layer extrusion width = 0.42mm

M201 X9000 Y9000 Z500 E10000 ; sets maximum accelerations, mm/sec^2
M203 X500 Y500 Z12 E120 ; sets maximum feedrates, mm/sec
M204 P1500 R1500 T1500 ; sets acceleration (P, T) and retract acceleration (R), mm/sec^2
M205 X10.00 Y10.00 Z0.20 E2.50 ; sets the jerk limits, mm/sec
M205 S0 T0 ; sets the minimum extruding and travel feed rate, mm/sec
M107
M190 S70 ; set bed temperature and wait for it to be reached
M104 S235 ; set temperature
;TYPE:Custom
G28 ; home all axes
G1 Z5 F5000 ; lift nozzle

G29 L1        ; Load the mesh stored in slot 1 (from G29 S1)
G29 J2        ; No size specified on the J option tells G29 to probe the specified 3 points and tilt the mesh according to what it finds.

M109 S235 ; set temperature and wait for it to be reached
G21 ; set units to millimeters
G90 ; use absolute coordinates
M82 ; use absolute distances for extrusion
G92 E0
; Filament gcode
M107
;LAYER_CHANGE
;Z:0.3
;HEIGHT:0.3
G1 Z.3 F1800
G1 E-.5 F1200
G92 E0
G1 Z.5 F1800
G1 X43.291 Y76.854
G1 Z.3
G1 E.5 F1200
;TYPE:Skirt/Brim
;WIDTH:0.42
G1 F480
G1 X45.128 Y76.093 E.58823
G1 X47.697 Y75.582 E.70437
G1 X65.756 Y75.582 E1.50538
G1 X114.279 Y75.659 E3.65764
G1 X116.837 Y76.17 E3.77332
G1 X118.675 Y76.931 E3.86155
G1 X120.852 Y78.386 E3.9777
G1 X125.141 Y82.675 E4.24676
G1 X126.596 Y84.852 E4.3629
G1 X127.357 Y86.69 E4.45113
G1 X127.868 Y89.258 E4.56728
G1 X127.868 Y107.307 E5.36781
G1 X127.357 Y109.875 E5.48396
G1 X126.596 Y111.713 E5.57219
G1 X125.141 Y113.89 E5.68833
G1 X120.852 Y118.18 E5.95739
G1 X118.675 Y119.634 E6.07354
G1 X116.837 Y120.396 E6.16177
G1 X114.27 Y120.906 E6.27787
G1 X71.966 Y120.91 E8.15423
G1 X47.674 Y120.829 E9.2317
G1 X45.128 Y120.318 E9.34688
G1 X43.291 Y119.557 E9.4351
G1 X41.113 Y118.102 E9.55125
G1 X36.824 Y113.813 E9.82031
G1 X35.369 Y111.636 E9.93646
G1 X34.608 Y109.798 E10.02469
G1 X34.097 Y107.23 E10.14083
G1 X34.097 Y89.181 E10.94137
G1 X34.608 Y86.613 E11.05752
G1 X35.369 Y84.775 E11.14574
G1 X36.824 Y82.598 E11.26189
G1 X41.113 Y78.309 E11.53095
G1 X43.241 Y76.887 E11.64444
G1 X43.427 Y77.182 F1800
G1 F480
G1 X45.264 Y76.421 E11.73266
G1 X47.697 Y75.937 E11.84266
G1 X65.755 Y75.937 E12.64364
G1 X114.279 Y76.015 E14.79589
G1 X116.701 Y76.498 E14.90545
G1 X118.539 Y77.26 E14.99368
G1 X120.6 Y78.637 E15.10367
G1 X124.89 Y82.927 E15.37273
G1 X126.268 Y84.989 E15.48272
G1 X127.029 Y86.826 E15.57095
G1 X127.513 Y89.258 E15.68094
G1 X127.513 Y107.307 E16.48148
G1 X127.029 Y109.739 E16.59147
G1 X126.268 Y111.577 E16.6797
G1 X124.89 Y113.639 E16.78969
G1 X120.6 Y117.928 E17.05875
G1 X118.539 Y119.306 E17.16874
G1 X116.701 Y120.067 E17.25697
G1 X114.27 Y120.551 E17.36692
G1 X71.966 Y120.554 E19.24327
G1 X47.676 Y120.474 E20.32069
G1 X45.264 Y119.99 E20.42977
G1 X43.427 Y119.229 E20.51799
G1 X41.365 Y117.851 E20.62799
G1 X37.075 Y113.562 E20.89705
G1 X35.698 Y111.5 E21.00704
G1 X34.937 Y109.662 E21.09527
G1 X34.453 Y107.23 E21.20526
G1 X34.453 Y89.181 E22.00579
G1 X34.937 Y86.749 E22.11579
G1 X35.698 Y84.911 E22.20401
G1 X37.075 Y82.85 E22.31401
G1 X41.365 Y78.56 E22.58307
G1 X43.377 Y77.216 E22.6904
G1 E22.1904 F1200
G92 E0
G1 Z.5 F1800
G1 X46.712 Y82.922
G1 Z.3
G1 E.5 F1200
G1 F480
G1 X47.716 Y82.579 E.54707
G1 X65.725 Y82.578 E1.34585
G1 X66.717 Y82.915 E1.39233
G1 X67.698 Y83.492 E1.4428
G1 X68.902 Y84.663 E1.51731
G1 X70.123 Y83.492 E1.59236
G1 X71.299 Y82.867 E1.65143
G1 X72.598 Y82.576 E1.7105
G1 X89.604 Y82.6 E2.46478
G1 X90.8 Y82.915 E2.51965
G1 X91.919 Y83.536 E2.5764
G1 X93.116 Y84.693 E2.65024
G1 X94.316 Y83.533 E2.7243
G1 X95.445 Y82.907 E2.78153
G1 X96.686 Y82.59 E2.83835
G1 X113.643 Y82.573 E3.59048
G1 X115.214 Y82.976 E3.66242
G1 X116.403 Y83.709 E3.72436
G1 X119.818 Y87.124 E3.93858
G1 X120.53 Y88.277 E3.99866
G1 X120.871 Y89.277 E4.04553
G1 X120.958 Y106.632 E4.81532
G1 X120.557 Y108.242 E4.88892
G1 X119.818 Y109.441 E4.95138
G1 X116.402 Y112.857 E5.16567
G1 X115.111 Y113.632 E5.23244
G1 X113.642 Y113.993 E5.29955
G1 X96.648 Y113.97 E6.0533
G1 X95.451 Y113.662 E6.10815
G1 X94.317 Y113.033 E6.16565
G1 X93.116 Y111.872 E6.23973
G1 X91.858 Y113.08 E6.31707
G1 X90.682 Y113.705 E6.37613
G1 X89.383 Y113.996 E6.43518
G1 X72.394 Y113.973 E7.18872
G1 X71.197 Y113.665 E7.24357
G1 X70.063 Y113.036 E7.30108
G1 X68.815 Y111.829 E7.3781
G1 X67.644 Y112.959 E7.45028
G1 X66.458 Y113.606 E7.51018
G1 X65.224 Y113.905 E7.56653
G1 X48.387 Y113.919 E8.31334
G1 X47.238 Y113.698 E8.36521
G1 X46.143 Y113.201 E8.41855
G1 X42.165 Y109.384 E8.66307
G1 X41.437 Y108.215 E8.72419
G1 X41.094 Y107.212 E8.77118
G1 X41.007 Y89.876 E9.54014
G1 X41.227 Y88.725 E9.59209
G1 X41.724 Y87.629 E9.64548
G1 X45.542 Y83.65 E9.89007
G1 X46.661 Y82.953 E9.94852
G1 X46.848 Y83.256 F1800
G1 F480
G1 X47.802 Y82.925 E9.99333
G1 X65.639 Y82.925 E10.78451
G1 X66.553 Y83.231 E10.82725
G1 X67.499 Y83.787 E10.87592
G1 X68.9 Y85.161 E10.96296
G1 X70.314 Y83.793 E11.05019
G1 X71.402 Y83.208 E11.10498
G1 X72.618 Y82.932 E11.16031
G1 X89.58 Y82.956 E11.91265
G1 X90.686 Y83.252 E11.96344
G1 X91.724 Y83.835 E12.01623
G1 X93.116 Y85.191 E12.10242
G1 X94.511 Y83.831 E12.18883
G1 X95.557 Y83.245 E12.24202
G1 X96.709 Y82.945 E12.29482
G1 X113.621 Y82.928 E13.04494
G1 X115.052 Y83.294 E13.11042
G1 X116.166 Y83.976 E13.16839
G1 X119.551 Y87.361 E13.38071
G1 X120.216 Y88.445 E13.43711
G1 X120.525 Y89.363 E13.48007
G1 X120.602 Y106.611 E14.24514
G1 X120.239 Y108.08 E14.31224
G1 X119.551 Y109.204 E14.3707
G1 X116.166 Y112.59 E14.58305
G1 X114.953 Y113.313 E14.64571
G1 X113.621 Y113.637 E14.7065
G1 X96.672 Y113.614 E15.45828
G1 X95.564 Y113.324 E15.5091
G1 X94.511 Y112.735 E15.56258
G1 X93.117 Y111.376 E15.64895
G1 X91.667 Y112.779 E15.73843
G1 X90.579 Y113.364 E15.79322
G1 X89.364 Y113.641 E15.84853
G1 X72.418 Y113.618 E16.60015
G1 X71.31 Y113.327 E16.65096
G1 X70.258 Y112.738 E16.70445
G1 X68.815 Y111.332 E16.79381
G1 X67.451 Y112.66 E16.87827
G1 X66.35 Y113.267 E16.93401
G1 X65.202 Y113.549 E16.98647
G1 X48.404 Y113.563 E17.73154
G1 X47.328 Y113.353 E17.78018
G1 X46.319 Y112.891 E17.82939
G1 X42.429 Y109.144 E18.06897
G1 X41.751 Y108.046 E18.12621
G1 X41.441 Y107.126 E18.16927
G1 X41.363 Y89.892 E18.93368
G1 X41.572 Y88.814 E18.98237
G1 X42.035 Y87.805 E19.03162
G1 X45.782 Y83.913 E19.27126
G1 X46.796 Y83.287 E19.32412
G1 X46.982 Y83.59 F1800
G1 F480
G1 X47.048 Y83.55 E19.32757
G1 X47.886 Y83.271 E19.36675
G1 X65.555 Y83.271 E20.15044
G1 X66.389 Y83.547 E20.18942
G1 X67.299 Y84.083 E20.23625
G1 X68.899 Y85.66 E20.33588
G1 X70.504 Y84.095 E20.43532
G1 X71.549 Y83.533 E20.48792
G1 X72.637 Y83.287 E20.53742
G1 X89.555 Y83.311 E21.28781
G1 X90.57 Y83.589 E21.33448
G1 X91.528 Y84.132 E21.38332
G1 X93.116 Y85.69 E21.48197
G1 X94.707 Y84.129 E21.58084
G1 X95.671 Y83.583 E21.62999
G1 X96.733 Y83.301 E21.67872
G1 X113.6 Y83.284 E22.42682
G1 X114.89 Y83.611 E22.48588
G1 X115.93 Y84.243 E22.53984
G1 X119.284 Y87.597 E22.75025
G1 X119.901 Y88.612 E22.80292
G1 X120.178 Y89.447 E22.84197
G1 X120.247 Y106.591 E23.60239
G1 X119.921 Y107.919 E23.66304
G1 X119.285 Y108.968 E23.71746
G1 X115.93 Y112.323 E23.92787
G1 X114.841 Y112.974 E23.98416
G1 X113.6 Y113.281 E24.04089
G1 X96.696 Y113.259 E24.79065
G1 X95.678 Y112.986 E24.83738
G1 X94.707 Y112.437 E24.88685
G1 X93.117 Y110.877 E24.98564
G1 X91.477 Y112.478 E25.0873
G1 X90.432 Y113.039 E25.13989
G1 X89.344 Y113.285 E25.18937
G1 X72.442 Y113.262 E25.93906
G1 X71.424 Y112.99 E25.9858
G1 X70.454 Y112.44 E26.03527
G1 X68.815 Y110.833 E26.13708
G1 X67.256 Y112.361 E26.23393
G1 X66.24 Y112.928 E26.28553
G1 X65.179 Y113.194 E26.33404
G1 X48.421 Y113.208 E27.07733
G1 X47.418 Y113.009 E27.12269
G1 X46.496 Y112.581 E27.16778
G1 X42.692 Y108.904 E27.40243
G1 X42.065 Y107.878 E27.45577
G1 X41.787 Y107.041 E27.4949
G1 X41.719 Y89.909 E28.25482
G1 X41.917 Y88.905 E28.30019
G1 X42.345 Y87.982 E28.34531
G1 X46.022 Y84.177 E28.58002
G1 X46.93 Y83.622 E28.62725
G1 X47.114 Y83.925 F1800
G1 F480
G1 X47.214 Y83.865 E28.63243
G1 X47.97 Y83.618 E28.66768
G1 X65.472 Y83.618 E29.444
G1 X66.226 Y83.864 E29.47918
G1 X67.1 Y84.378 E29.52414
G1 X68.898 Y86.16 E29.63643
G1 X70.697 Y84.395 E29.74821
G1 X71.653 Y83.874 E29.79651
G1 X72.658 Y83.643 E29.84223
G1 X89.53 Y83.667 E30.59061
G1 X90.452 Y83.925 E30.63307
G1 X91.331 Y84.429 E30.67799
G1 X93.116 Y86.19 E30.78922
G1 X94.904 Y84.425 E30.90066
G1 X95.787 Y83.92 E30.94579
G1 X96.758 Y83.656 E30.99038
G1 X113.578 Y83.639 E31.73645
G1 X114.73 Y83.93 E31.78914
G1 X115.694 Y84.51 E31.83905
G1 X119.017 Y87.833 E32.0475
G1 X119.586 Y88.777 E32.09638
G1 X119.832 Y89.531 E32.13155
G1 X119.891 Y106.571 E32.88737
G1 X119.602 Y107.76 E32.94163
G1 X119.017 Y108.732 E32.99196
G1 X115.695 Y112.055 E33.20039
G1 X114.683 Y112.655 E33.25255
G1 X113.579 Y112.926 E33.30299
G1 X96.721 Y112.903 E34.05072
G1 X95.795 Y112.65 E34.09331
G1 X94.905 Y112.14 E34.13879
G1 X93.118 Y110.378 E34.25011
G1 X91.285 Y112.178 E34.36407
G1 X90.328 Y112.698 E34.41237
G1 X89.324 Y112.929 E34.45807
G1 X72.467 Y112.906 E35.20577
G1 X71.541 Y112.653 E35.24836
G1 X70.651 Y112.144 E35.29384
G1 X68.815 Y110.332 E35.40822
G1 X67.06 Y112.063 E35.51757
G1 X66.128 Y112.589 E35.56502
G1 X65.156 Y112.838 E35.60953
G1 X48.439 Y112.852 E36.35102
G1 X47.51 Y112.665 E36.39305
G1 X46.675 Y112.272 E36.434
G1 X42.957 Y108.665 E36.66375
G1 X42.38 Y107.712 E36.71316
G1 X42.134 Y106.958 E36.74838
G1 X42.074 Y89.925 E37.50387
G1 X42.248 Y89.035 E37.54409
G1 X42.655 Y88.159 E37.58691
G1 X46.261 Y84.441 E37.81664
G1 X47.063 Y83.956 E37.85821
G1 X47.245 Y84.261 F1800
G1 F480
G1 X47.378 Y84.181 E37.86511
G1 X48.051 Y83.965 E37.89646
G1 X65.39 Y83.965 E38.66553
G1 X66.063 Y84.181 E38.69687
G1 X66.9 Y84.673 E38.73993
G1 X68.897 Y86.661 E38.86492
G1 X70.891 Y84.694 E38.98916
G1 X71.759 Y84.214 E39.03315
G1 X72.678 Y83.999 E39.07503
G1 X89.504 Y84.022 E39.82135
G1 X90.332 Y84.26 E39.85955
G1 X91.132 Y84.725 E39.90058
G1 X93.116 Y86.691 E40.02448
G1 X95.103 Y84.721 E40.1486
G1 X95.905 Y84.256 E40.18974
G1 X96.783 Y84.012 E40.23012
G1 X113.557 Y83.995 E40.97413
G1 X114.571 Y84.249 E41.02051
G1 X115.459 Y84.777 E41.06633
G1 X118.75 Y88.068 E41.27278
G1 X119.269 Y88.941 E41.31782
G1 X119.485 Y89.613 E41.34911
G1 X119.535 Y106.551 E42.1004
G1 X119.282 Y107.602 E42.14834
G1 X118.75 Y108.497 E42.19454
G1 X115.459 Y111.788 E42.40099
G1 X114.571 Y112.316 E42.44681
G1 X113.557 Y112.57 E42.49318
G1 X96.746 Y112.547 E43.23883
G1 X95.913 Y112.314 E43.27719
G1 X95.103 Y111.844 E43.31872
G1 X93.119 Y109.877 E43.44267
G1 X91.091 Y111.879 E43.56906
G1 X90.222 Y112.358 E43.61305
G1 X89.304 Y112.574 E43.65491
G1 X72.492 Y112.551 E44.40058
G1 X71.659 Y112.317 E44.43895
G1 X70.849 Y111.848 E44.48048
G1 X68.815 Y109.831 E44.60752
G1 X66.863 Y111.767 E44.72948
G1 X66.015 Y112.252 E44.77281
G1 X65.133 Y112.483 E44.81325
G1 X48.456 Y112.497 E45.55293
G1 X47.642 Y112.334 E45.58977
G1 X46.853 Y111.963 E45.62844
G1 X43.222 Y108.427 E45.85323
G1 X42.696 Y107.548 E45.89865
G1 X42.481 Y106.876 E45.92998
G1 X42.43 Y89.942 E46.68108
G1 X42.593 Y89.126 E46.71796
G1 X42.963 Y88.337 E46.75663
G1 X46.499 Y84.706 E46.98142
G1 X47.193 Y84.291 E47.01729
G1 X47.373 Y84.597 F1800
G1 F480
G1 X47.54 Y84.498 E47.0259
G1 X48.131 Y84.313 E47.05337
G1 X65.31 Y84.313 E47.81534
G1 X65.901 Y84.498 E47.84279
G1 X66.7 Y84.968 E47.88392
G1 X68.896 Y87.164 E48.02166
G1 X71.086 Y84.992 E48.15847
G1 X71.867 Y84.554 E48.19816
G1 X72.699 Y84.354 E48.23614
G1 X89.479 Y84.378 E48.98038
G1 X90.172 Y84.579 E49.01241
G1 X90.934 Y85.021 E49.05146
G1 X93.116 Y87.194 E49.18806
G1 X95.301 Y85.017 E49.32487
G1 X96.064 Y84.575 E49.36399
G1 X96.807 Y84.368 E49.39819
G1 X113.535 Y84.351 E50.14017
G1 X114.413 Y84.569 E50.1803
G1 X115.224 Y85.045 E50.22199
G1 X118.482 Y88.303 E50.42638
G1 X118.952 Y89.103 E50.46751
G1 X119.137 Y89.693 E50.49494
G1 X119.18 Y106.531 E51.24179
G1 X118.962 Y107.445 E51.28347
G1 X118.482 Y108.262 E51.32549
G1 X115.224 Y111.52 E51.52989
G1 X114.413 Y111.996 E51.57157
G1 X113.536 Y112.215 E51.61169
G1 X96.771 Y112.192 E52.35529
G1 X96.072 Y111.995 E52.38748
G1 X95.301 Y111.548 E52.427
G1 X93.119 Y109.375 E52.56362
G1 X90.895 Y111.581 E52.70255
G1 X90.115 Y112.018 E52.74224
G1 X89.283 Y112.218 E52.7802
G1 X72.517 Y112.195 E53.52382
G1 X71.819 Y111.998 E53.55602
G1 X71.048 Y111.552 E53.59554
G1 X68.815 Y109.328 E53.73527
G1 X66.664 Y111.471 E53.86995
G1 X65.899 Y111.915 E53.90918
G1 X65.109 Y112.127 E53.94547
G1 X48.474 Y112.141 E54.68328
G1 X47.735 Y111.99 E54.71675
G1 X47.033 Y111.655 E54.75126
G1 X43.488 Y108.19 E54.97114
G1 X43.013 Y107.386 E55.01254
G1 X42.828 Y106.795 E55.04
G1 X42.786 Y89.96 E55.78675
G1 X42.937 Y89.22 E55.82024
G1 X43.271 Y88.517 E55.85475
G1 X46.737 Y84.972 E56.07463
G1 X47.322 Y84.627 E56.10476
G1 X47.499 Y84.933 F1800
G1 F480
G1 X47.7 Y84.816 E56.11507
G1 X48.21 Y84.66 E56.13869
G1 X65.232 Y84.66 E56.89373
G1 X65.741 Y84.816 E56.91734
G1 X66.465 Y85.236 E56.95447
G1 X68.896 Y87.666 E57.10692
G1 X71.283 Y85.288 E57.25638
G1 X71.977 Y84.893 E57.29178
G1 X72.721 Y84.71 E57.32577
G1 X89.453 Y84.734 E58.06791
G1 X90.012 Y84.897 E58.09376
G1 X90.735 Y85.317 E58.13084
G1 X93.116 Y87.697 E58.28017
G1 X95.5 Y85.313 E58.42972
G1 X96.223 Y84.894 E58.46681
G1 X96.832 Y84.723 E58.49484
G1 X113.514 Y84.706 E59.23479
G1 X114.258 Y84.889 E59.26875
G1 X114.989 Y85.313 E59.30623
G1 X118.214 Y88.538 E59.50853
G1 X118.634 Y89.262 E59.54566
G1 X118.79 Y89.771 E59.56926
G1 X118.824 Y106.511 E60.31176
G1 X118.641 Y107.29 E60.34726
G1 X118.214 Y108.027 E60.38503
G1 X114.989 Y111.252 E60.58733
G1 X114.258 Y111.676 E60.62481
G1 X113.515 Y111.859 E60.65876
G1 X96.796 Y111.836 E61.40031
G1 X96.232 Y111.676 E61.42633
G1 X95.5 Y111.252 E61.46384
G1 X93.119 Y108.872 E61.61316
G1 X90.698 Y111.284 E61.76476
G1 X90.005 Y111.679 E61.80016
G1 X89.261 Y111.862 E61.83413
G1 X72.542 Y111.84 E62.57569
G1 X71.978 Y111.68 E62.60171
G1 X71.246 Y111.256 E62.63922
G1 X68.815 Y108.825 E62.79168
G1 X66.465 Y111.175 E62.93909
G1 X65.741 Y111.595 E62.97625
G1 X65.085 Y111.771 E63.00637
G1 X48.493 Y111.785 E63.7423
G1 X47.83 Y111.647 E63.77234
G1 X47.214 Y111.348 E63.80268
G1 X43.754 Y107.953 E64.01769
G1 X43.332 Y107.226 E64.055
G1 X43.176 Y106.717 E64.07861
G1 X43.141 Y89.978 E64.82108
G1 X43.28 Y89.315 E64.85113
G1 X43.578 Y88.699 E64.88147
G1 X46.973 Y85.239 E65.09648
G1 X47.448 Y84.963 E65.12082
G1 X47.623 Y85.27 F1800
G1 F480
G1 X47.858 Y85.136 E65.13282
G1 X48.285 Y85.009 E65.15261
G1 X65.156 Y85.009 E65.90092
G1 X65.584 Y85.136 E65.92071
G1 X66.231 Y85.505 E65.95375
G1 X68.896 Y88.17 E66.12091
G1 X71.48 Y85.585 E66.28301
G1 X72.131 Y85.214 E66.31624
G1 X72.742 Y85.065 E66.34411
G1 X89.426 Y85.089 E67.08415
G1 X89.854 Y85.216 E67.10394
G1 X90.501 Y85.585 E67.13698
G1 X93.116 Y88.2 E67.30101
G1 X95.734 Y85.582 E67.46524
G1 X96.38 Y85.213 E67.49823
G1 X96.857 Y85.079 E67.5202
G1 X113.493 Y85.062 E68.25812
G1 X114.104 Y85.211 E68.28599
G1 X114.755 Y85.582 E68.31922
G1 X117.945 Y88.772 E68.51934
G1 X118.314 Y89.419 E68.55239
G1 X118.441 Y89.847 E68.57217
G1 X118.468 Y106.491 E69.31043
G1 X118.319 Y107.137 E69.33984
G1 X117.945 Y107.793 E69.37331
G1 X114.755 Y110.983 E69.57344
G1 X114.104 Y111.354 E69.60666
G1 X113.494 Y111.503 E69.63452
G1 X96.866 Y111.487 E70.37203
G1 X96.387 Y111.356 E70.39407
G1 X95.734 Y110.983 E70.42741
G1 X93.119 Y108.369 E70.59143
G1 X90.501 Y110.987 E70.75567
G1 X89.85 Y111.358 E70.78889
G1 X89.24 Y111.507 E70.81675
G1 X72.613 Y111.49 E71.55426
G1 X72.133 Y111.359 E71.5763
G1 X71.48 Y110.987 E71.60964
G1 X68.815 Y108.322 E71.77679
G1 X66.231 Y110.906 E71.93889
G1 X65.585 Y111.275 E71.9719
G1 X65.061 Y111.416 E71.99594
G1 X48.512 Y111.43 E72.72998
G1 X47.927 Y111.304 E72.75651
G1 X47.398 Y111.042 E72.7827
G1 X44.022 Y107.718 E72.99287
G1 X43.651 Y107.069 E73.02602
G1 X43.524 Y106.641 E73.04581
G1 X43.497 Y89.997 E73.78407
G1 X43.623 Y89.412 E73.81059
G1 X43.884 Y88.883 E73.83678
