; generated by PrusaSlicer 2.4.0+win64 on 2022-03-27 at 14:26:54 UTC

; 

; external perimeters extrusion width = 0.45mm
; perimeters extrusion width = 0.45mm
; infill extrusion width = 0.45mm
; solid infill extrusion width = 0.45mm
; top infill extrusion width = 0.40mm
; first layer extrusion width = 0.42mm

M201 X9000 Y9000 Z500 E10000 ; sets maximum accelerations, mm/sec^2
M203 X500 Y500 Z12 E120 ; sets maximum feedrates, mm/sec
M204 P1500 R1500 T1500 ; sets acceleration (P, T) and retract acceleration (R), mm/sec^2
M205 X10.00 Y10.00 Z0.20 E2.50 ; sets the jerk limits, mm/sec
M205 S0 T0 ; sets the minimum extruding and travel feed rate, mm/sec
M107
;TYPE:Custom
;M502          ; Reset settings to configuration defaults...
;M500         ; ...and Save to EEPROM. Use this on a new install.  
;M501          ; Read back in the saved EEPROM.

M190 S65      ; Not required, but having the printer at temperature helps accuracy
M104 S210     ; Not required, but having the printer at temperature helps accuracy

G28           ; Home XYZ.
G29 P1        ; Do automated probing of the bed. ; 
;G29 P2 B T  ; Manual probing of locations. USUALLY NOT NEEDED! 
G29 P3 T      ; Repeat until all mesh points are filled in.

G29 T         ; View the Z compensation values.
G29 S1        ; Save UBL mesh points to EEPROM.
G29 F 10.0    ; Set Fade Height for correction at 10.0 mm.
G29 A         ; Activate the UBL System.
M500          ; Save current setup. WARNING - UBL will be active at power up, before any G28.
G21 ; set units to millimeters
G90 ; use absolute coordinates
M82 ; use absolute distances for extrusion
G92 E0
; Filament gcode
M107
;LAYER_CHANGE
;Z:0.3
;HEIGHT:0.3
G1 Z.3 F3000
G1 E-.5 F1200
G92 E0
G1 Z.5 F3000
G1 X59.544 Y82.087
G1 Z.3
G1 E.5 F1200
;TYPE:Skirt/Brim
;WIDTH:0.42
G1 F600
G1 X60.893 Y81.264 E.5701
G1 X62.385 Y80.675 E.64127
G1 X63.874 Y80.363 E.70872
G1 X102.808 Y76.325 E2.4449
G1 X115.585 Y76.314 E3.01163
G1 X117.148 Y76.55 E3.08175
G1 X118.691 Y77.068 E3.15396
G1 X120.079 Y77.825 E3.22407
G1 X121.353 Y78.839 E3.29628
G1 X122.413 Y80.044 E3.36744
G1 X123.422 Y81.787 E3.45678
G1 X123.94 Y83.312 E3.52824
G1 X124.185 Y84.909 E3.59988
G1 X124.211 Y94.5 E4.02528
G1 X124.148 Y95.519 E4.07059
G1 X123.832 Y97.092 E4.14175
G1 X123.248 Y98.586 E4.21292
G1 X122.663 Y99.599 E4.26481
G1 X121.661 Y100.853 E4.33597
G1 X120.105 Y102.159 E4.42608
G1 X118.707 Y102.924 E4.49677
G1 X117.592 Y103.332 E4.54942
G1 X116.019 Y103.648 E4.62058
G1 X115.007 Y103.711 E4.66558
G1 X65 Y103.711 E6.8836
G1 X63.981 Y103.648 E6.92889
G1 X62.829 Y103.445 E6.98079
G1 X61.309 Y102.932 E7.05195
G1 X59.544 Y101.913 E7.14235
G1 X58.339 Y100.853 E7.21351
G1 X57.587 Y99.956 E7.2654
G1 X56.752 Y98.586 E7.33656
G1 X56.168 Y97.092 E7.40773
G1 X55.814 Y95.085 E7.49813
G1 X55.789 Y89.5 E7.74585
G1 X55.852 Y88.481 E7.79113
G1 X56.055 Y87.329 E7.84302
G1 X56.568 Y85.809 E7.91419
G1 X57.578 Y84.058 E8.00382
G1 X58.647 Y82.839 E8.07575
G1 X59.498 Y82.126 E8.12497
G1 X59.725 Y82.397 F3000
G1 F600
G1 X61.044 Y81.586 E8.19364
G1 X62.478 Y81.019 E8.26206
G1 X63.91 Y80.716 E8.32698
G1 X102.844 Y76.678 E10.06315
G1 X115.554 Y76.669 E10.62688
G1 X117.057 Y76.894 E10.69429
G1 X118.541 Y77.391 E10.76371
G1 X119.876 Y78.117 E10.83112
G1 X121.101 Y79.091 E10.90054
G1 X122.121 Y80.248 E10.96895
G1 X123.1 Y81.938 E11.05558
G1 X123.597 Y83.405 E11.12429
G1 X123.831 Y84.94 E11.19314
G1 X123.856 Y94.5 E11.61717
G1 X123.793 Y95.488 E11.6611
G1 X123.488 Y97 E11.72951
G1 X122.925 Y98.436 E11.79793
G1 X122.371 Y99.395 E11.84707
G1 X121.409 Y100.601 E11.91548
G1 X119.901 Y101.868 E12.00284
G1 X118.556 Y102.602 E12.07083
G1 X117.5 Y102.988 E12.12068
G1 X115.988 Y103.293 E12.1891
G1 X115.007 Y103.355 E12.23272
G1 X65 Y103.356 E14.45075
G1 X64.012 Y103.293 E14.49466
G1 X62.921 Y103.101 E14.5438
G1 X61.459 Y102.609 E14.61222
G1 X59.748 Y101.621 E14.69986
G1 X58.591 Y100.601 E14.76828
G1 X57.879 Y99.752 E14.81742
G1 X57.075 Y98.436 E14.88583
G1 X56.512 Y97 E14.95425
G1 X56.169 Y95.054 E15.0419
G1 X56.144 Y89.5 E15.28824
G1 X56.207 Y88.512 E15.33215
G1 X56.399 Y87.421 E15.38129
G1 X56.891 Y85.959 E15.44971
G1 X57.869 Y84.261 E15.53664
G1 X58.899 Y83.091 E15.60577
G1 X59.679 Y82.436 E15.65096
G1 E15.15096 F1200
G92 E0
G1 Z.5 F3000
G1 X87.975 Y90.177
G1 Z.3
G1 E.5 F1200
;TYPE:Perimeter
G1 F600
G1 X88.106 Y89.991 E.51009
G1 X88.491 Y89.606 E.53425
G1 X88.937 Y89.293 E.55842
G1 X89.431 Y89.063 E.58258
G1 X89.957 Y88.922 E.60675
G1 X90.472 Y88.877 E.62965
G1 X91.038 Y88.921 E.65485
G1 X91.569 Y89.063 E.67923
G1 X92.063 Y89.293 E.70339
G1 X92.509 Y89.606 E.72756
G1 X92.894 Y89.991 E.75172
G1 X93.207 Y90.437 E.77589
G1 X93.437 Y90.931 E.80005
G1 X93.578 Y91.457 E.82422
G1 X93.626 Y92 E.84838
G1 X93.578 Y92.543 E.87255
G1 X93.437 Y93.069 E.89671
G1 X93.207 Y93.563 E.92088
G1 X92.894 Y94.009 E.94504
G1 X92.509 Y94.394 E.96921
G1 X92.063 Y94.707 E.99337
G1 X91.569 Y94.937 E1.01754
G1 X91.043 Y95.078 E1.0417
G1 X90.5 Y95.126 E1.06587
G1 X89.957 Y95.078 E1.09003
G1 X89.431 Y94.937 E1.1142
G1 X88.937 Y94.707 E1.13837
G1 X88.491 Y94.394 E1.16253
G1 X88.106 Y94.009 E1.1867
G1 X87.793 Y93.563 E1.21086
G1 X87.563 Y93.069 E1.23503
G1 X87.422 Y92.543 E1.25919
G1 X87.374 Y92 E1.28335
G1 X87.422 Y91.457 E1.30752
G1 X87.563 Y90.931 E1.33169
G1 X87.793 Y90.437 E1.35585
G1 X87.941 Y90.226 E1.36727
G1 X88.081 Y90.662 F3000
G1 F600
G1 X88.379 Y90.22 E1.39093
G1 X88.72 Y89.879 E1.41233
G1 X89.116 Y89.602 E1.43374
G1 X89.553 Y89.398 E1.45514
G1 X90.019 Y89.274 E1.47655
G1 X90.473 Y89.234 E1.49677
G1 X90.978 Y89.273 E1.51921
G1 X91.447 Y89.398 E1.54075
G1 X91.884 Y89.602 E1.56215
G1 X92.28 Y89.879 E1.58356
G1 X92.621 Y90.22 E1.60496
G1 X92.898 Y90.616 E1.62637
G1 X93.102 Y91.053 E1.64777
G1 X93.226 Y91.519 E1.66918
G1 X93.269 Y92 E1.69058
G1 X93.226 Y92.481 E1.71199
G1 X93.102 Y92.947 E1.73339
G1 X92.898 Y93.384 E1.7548
G1 X92.621 Y93.78 E1.7762
G1 X92.28 Y94.121 E1.79761
G1 X91.884 Y94.398 E1.81901
G1 X91.447 Y94.602 E1.84042
G1 X90.981 Y94.726 E1.86182
G1 X90.5 Y94.769 E1.88323
G1 X90.019 Y94.726 E1.90463
G1 X89.553 Y94.602 E1.92604
G1 X89.116 Y94.398 E1.94744
G1 X88.72 Y94.121 E1.96885
G1 X88.379 Y93.78 E1.99025
G1 X88.102 Y93.384 E2.01166
G1 X87.898 Y92.947 E2.03307
G1 X87.774 Y92.481 E2.05447
G1 X87.731 Y92 E2.07587
G1 X87.774 Y91.519 E2.09728
G1 X87.898 Y91.053 E2.11869
G1 X88.055 Y90.717 E2.13515
G1 X88.234 Y91.175 F3000
;TYPE:External perimeter
G1 F600
G1 X88.412 Y90.794 E2.15379
G1 X88.653 Y90.45 E2.17244
G1 X88.95 Y90.153 E2.19108
G1 X89.294 Y89.912 E2.20973
G1 X89.675 Y89.734 E2.22837
G1 X90.081 Y89.625 E2.24702
G1 X90.475 Y89.591 E2.26456
G1 X90.918 Y89.625 E2.28424
G1 X91.325 Y89.734 E2.30294
G1 X91.706 Y89.912 E2.32158
G1 X92.05 Y90.153 E2.34023
G1 X92.347 Y90.45 E2.35887
G1 X92.588 Y90.794 E2.37752
G1 X92.766 Y91.175 E2.39616
G1 X92.875 Y91.581 E2.41481
G1 X92.912 Y92 E2.43345
G1 X92.875 Y92.419 E2.4521
G1 X92.766 Y92.825 E2.47074
G1 X92.588 Y93.206 E2.48939
G1 X92.347 Y93.55 E2.50803
G1 X92.05 Y93.847 E2.52668
G1 X91.706 Y94.088 E2.54532
G1 X91.325 Y94.266 E2.56397
G1 X90.919 Y94.375 E2.58261
G1 X90.5 Y94.412 E2.60126
G1 X90.081 Y94.375 E2.61991
G1 X89.675 Y94.266 E2.63855
G1 X89.294 Y94.088 E2.6572
G1 X88.95 Y93.847 E2.67584
G1 X88.653 Y93.55 E2.69449
G1 X88.412 Y93.206 E2.71313
G1 X88.234 Y92.825 E2.73178
G1 X88.125 Y92.419 E2.75042
G1 X88.088 Y92 E2.76907
G1 X88.125 Y91.581 E2.78771
G1 X88.218 Y91.233 E2.8037
G1 X87.977 Y90.869 F3000
G1 E2.3037 F1200
G92 E0
G1 Z.5 F3000
G1 X83.598 Y92.315
G1 Z.3
G1 E.5 F1200
;TYPE:Perimeter
G1 F600
G1 X83.578 Y92.543 E.51013
G1 X83.437 Y93.069 E.5343
G1 X83.207 Y93.563 E.55846
G1 X82.894 Y94.009 E.58263
G1 X82.509 Y94.394 E.60679
G1 X82.063 Y94.707 E.63096
G1 X81.569 Y94.937 E.65513
G1 X81.043 Y95.078 E.67929
G1 X80.5 Y95.126 E.70345
G1 X79.957 Y95.078 E.72762
G1 X79.431 Y94.937 E.75179
G1 X78.937 Y94.707 E.77595
G1 X78.491 Y94.394 E.80012
G1 X78.106 Y94.009 E.82428
G1 X77.793 Y93.563 E.84845
G1 X77.563 Y93.069 E.87261
G1 X77.422 Y92.543 E.89678
G1 X77.374 Y92 E.92094
G1 X77.422 Y91.457 E.94511
G1 X77.563 Y90.931 E.96927
G1 X77.793 Y90.437 E.99344
G1 X78.106 Y89.991 E1.0176
G1 X78.491 Y89.606 E1.04177
G1 X78.937 Y89.293 E1.06593
G1 X79.431 Y89.063 E1.0901
G1 X79.957 Y88.922 E1.11426
G1 X80.472 Y88.877 E1.13717
G1 X81.038 Y88.921 E1.16237
G1 X81.569 Y89.063 E1.18674
G1 X82.063 Y89.293 E1.21091
G1 X82.509 Y89.606 E1.23507
G1 X82.894 Y89.991 E1.25924
G1 X83.207 Y90.437 E1.2834
G1 X83.425 Y90.905 E1.30631
G1 X83.578 Y91.453 E1.33151
G1 X83.626 Y92 E1.35588
G1 X83.603 Y92.255 E1.36725
G1 X83.264 Y91.948 F3000
G1 F600
G1 X83.226 Y92.481 E1.39096
G1 X83.102 Y92.947 E1.41236
G1 X82.898 Y93.384 E1.43377
G1 X82.621 Y93.78 E1.45517
G1 X82.28 Y94.121 E1.47658
G1 X81.884 Y94.398 E1.49798
G1 X81.447 Y94.602 E1.51939
G1 X80.981 Y94.726 E1.54079
G1 X80.5 Y94.769 E1.5622
G1 X80.019 Y94.726 E1.58361
G1 X79.553 Y94.602 E1.60501
G1 X79.116 Y94.398 E1.62642
G1 X78.72 Y94.121 E1.64782
G1 X78.379 Y93.78 E1.66922
G1 X78.102 Y93.384 E1.69063
G1 X77.898 Y92.947 E1.71204
G1 X77.774 Y92.481 E1.73344
G1 X77.731 Y92 E1.75484
G1 X77.774 Y91.519 E1.77625
G1 X77.898 Y91.053 E1.79766
G1 X78.102 Y90.616 E1.81906
G1 X78.379 Y90.22 E1.84047
G1 X78.72 Y89.879 E1.86187
G1 X79.116 Y89.602 E1.88328
G1 X79.553 Y89.398 E1.90468
G1 X80.019 Y89.274 E1.92609
G1 X80.473 Y89.234 E1.94631
G1 X80.978 Y89.273 E1.96875
G1 X81.447 Y89.398 E1.99029
G1 X81.884 Y89.602 E2.01169
G1 X82.28 Y89.879 E2.0331
G1 X82.621 Y90.22 E2.0545
G1 X82.898 Y90.616 E2.07591
G1 X83.09 Y91.029 E2.09613
G1 X83.226 Y91.516 E2.11857
G1 X83.259 Y91.888 E2.13512
G1 X82.875 Y91.58 F3000
;TYPE:External perimeter
G1 F600
G1 X82.912 Y92 E2.15381
G1 X82.875 Y92.419 E2.17245
G1 X82.766 Y92.825 E2.1911
G1 X82.588 Y93.206 E2.20974
G1 X82.347 Y93.55 E2.22839
G1 X82.05 Y93.847 E2.24703
G1 X81.706 Y94.088 E2.26568
G1 X81.325 Y94.266 E2.28433
G1 X80.919 Y94.375 E2.30297
G1 X80.5 Y94.412 E2.32161
G1 X80.081 Y94.375 E2.34026
G1 X79.675 Y94.266 E2.35891
G1 X79.294 Y94.088 E2.37755
G1 X78.95 Y93.847 E2.3962
G1 X78.653 Y93.55 E2.41484
G1 X78.412 Y93.206 E2.43349
G1 X78.234 Y92.825 E2.45213
G1 X78.125 Y92.419 E2.47078
G1 X78.088 Y92 E2.48942
G1 X78.125 Y91.581 E2.50807
G1 X78.234 Y91.175 E2.52671
G1 X78.412 Y90.794 E2.54536
G1 X78.653 Y90.45 E2.564
G1 X78.95 Y90.153 E2.58265
G1 X79.294 Y89.912 E2.60129
G1 X79.675 Y89.734 E2.61994
G1 X80.081 Y89.625 E2.63858
G1 X80.475 Y89.591 E2.65613
G1 X80.918 Y89.625 E2.67581
G1 X81.325 Y89.734 E2.6945
G1 X81.706 Y89.912 E2.71315
G1 X82.05 Y90.153 E2.73179
G1 X82.347 Y90.45 E2.75044
G1 X82.588 Y90.794 E2.76908
G1 X82.756 Y91.153 E2.78663
G1 X82.859 Y91.522 E2.80365
G1 X83.251 Y91.717 F3000
G1 E2.30365 F1200
G92 E0
G1 Z.5 F3000
G1 X73.496 Y92.849
G1 Z.3
G1 E.5 F1200
;TYPE:Perimeter
G1 F600
G1 X73.437 Y93.069 E.51009
G1 X73.207 Y93.563 E.53425
G1 X72.894 Y94.009 E.55842
G1 X72.509 Y94.394 E.58258
G1 X72.063 Y94.707 E.60675
G1 X71.569 Y94.937 E.63091
G1 X71.043 Y95.078 E.65508
G1 X70.5 Y95.126 E.67924
G1 X69.957 Y95.078 E.70341
G1 X69.431 Y94.937 E.72757
G1 X68.937 Y94.707 E.75174
G1 X68.491 Y94.394 E.7759
G1 X68.106 Y94.009 E.80007
G1 X67.793 Y93.563 E.82423
G1 X67.563 Y93.069 E.8484
G1 X67.422 Y92.543 E.87256
G1 X67.374 Y92 E.89673
G1 X67.422 Y91.457 E.92089
G1 X67.563 Y90.931 E.94506
G1 X67.793 Y90.437 E.96922
G1 X68.106 Y89.991 E.99339
G1 X68.491 Y89.606 E1.01755
G1 X68.937 Y89.293 E1.04172
G1 X69.431 Y89.063 E1.06589
G1 X69.957 Y88.922 E1.09005
G1 X70.472 Y88.877 E1.11295
G1 X71.038 Y88.921 E1.13816
G1 X71.569 Y89.063 E1.16253
G1 X72.063 Y89.293 E1.1867
G1 X72.509 Y89.606 E1.21086
G1 X72.894 Y89.991 E1.23503
G1 X73.207 Y90.437 E1.25919
G1 X73.437 Y90.931 E1.28336
G1 X73.578 Y91.457 E1.30752
G1 X73.626 Y92 E1.33169
G1 X73.578 Y92.543 E1.35585
G1 X73.511 Y92.791 E1.36727
G1 X73.231 Y92.429 F3000
G1 F600
G1 X73.102 Y92.947 E1.39093
G1 X72.898 Y93.384 E1.41233
G1 X72.621 Y93.78 E1.43374
G1 X72.28 Y94.121 E1.45514
G1 X71.884 Y94.398 E1.47655
G1 X71.447 Y94.602 E1.49795
G1 X70.981 Y94.726 E1.51936
G1 X70.5 Y94.769 E1.54076
G1 X70.019 Y94.726 E1.56217
G1 X69.553 Y94.602 E1.58357
G1 X69.116 Y94.398 E1.60498
G1 X68.72 Y94.121 E1.62638
G1 X68.379 Y93.78 E1.64779
G1 X68.102 Y93.384 E1.66919
G1 X67.898 Y92.947 E1.6906
G1 X67.774 Y92.481 E1.712
G1 X67.731 Y92 E1.73341
G1 X67.774 Y91.519 E1.75481
G1 X67.898 Y91.053 E1.77622
G1 X68.102 Y90.616 E1.79762
G1 X68.379 Y90.22 E1.81903
G1 X68.72 Y89.879 E1.84043
G1 X69.116 Y89.602 E1.86184
G1 X69.553 Y89.398 E1.88325
G1 X70.019 Y89.274 E1.90465
G1 X70.473 Y89.234 E1.92487
G1 X70.978 Y89.273 E1.94732
G1 X71.447 Y89.398 E1.96885
G1 X71.884 Y89.602 E1.99026
G1 X72.28 Y89.879 E2.01166
G1 X72.621 Y90.22 E2.03307
G1 X72.898 Y90.616 E2.05447
G1 X73.102 Y91.053 E2.07588
G1 X73.226 Y91.519 E2.09728
G1 X73.269 Y92 E2.11869
G1 X73.236 Y92.37 E2.13515
G1 X72.912 Y92 F3000
;TYPE:External perimeter
G1 F600
G1 X72.875 Y92.419 E2.15379
G1 X72.766 Y92.825 E2.17244
G1 X72.588 Y93.206 E2.19108
G1 X72.347 Y93.55 E2.20973
G1 X72.05 Y93.847 E2.22837
G1 X71.706 Y94.088 E2.24702
G1 X71.325 Y94.266 E2.26566
G1 X70.919 Y94.375 E2.28431
G1 X70.5 Y94.412 E2.30295
G1 X70.081 Y94.375 E2.3216
G1 X69.675 Y94.266 E2.34024
G1 X69.294 Y94.088 E2.35889
G1 X68.95 Y93.847 E2.37753
G1 X68.653 Y93.55 E2.39618
G1 X68.412 Y93.206 E2.41482
G1 X68.234 Y92.825 E2.43347
G1 X68.125 Y92.419 E2.45211
G1 X68.088 Y92 E2.47076
G1 X68.125 Y91.581 E2.48941
G1 X68.234 Y91.175 E2.50805
G1 X68.412 Y90.794 E2.5267
G1 X68.653 Y90.45 E2.54534
G1 X68.95 Y90.153 E2.56398
G1 X69.294 Y89.912 E2.58263
G1 X69.675 Y89.734 E2.60128
G1 X70.081 Y89.625 E2.61992
G1 X70.475 Y89.591 E2.63747
G1 X70.918 Y89.625 E2.65715
G1 X71.325 Y89.734 E2.67584
G1 X71.706 Y89.912 E2.69449
G1 X72.05 Y90.153 E2.71313
G1 X72.347 Y90.45 E2.73178
G1 X72.588 Y90.794 E2.75042
G1 X72.766 Y91.175 E2.76907
G1 X72.875 Y91.581 E2.78771
G1 X72.906 Y91.94 E2.8037
G1 X73.258 Y92.2 F3000
G1 E2.3037 F1200
G92 E0
G1 Z.5 F3000
G1 X95.753 Y87.85
G1 Z.3
G1 E.5 F1200
;TYPE:Perimeter
G1 F600
G1 X103.749 Y84.121 E.89132
G1 X114.951 Y84.121 E1.3882
G1 X115.239 Y84.146 E1.40101
G1 X115.47 Y84.208 E1.41164
G1 X115.687 Y84.31 E1.42226
G1 X115.884 Y84.447 E1.43289
G1 X116.053 Y84.617 E1.44352
G1 X116.19 Y84.813 E1.45414
G1 X116.292 Y85.03 E1.46477
G1 X116.354 Y85.261 E1.4754
G1 X116.379 Y85.549 E1.4882
G1 X116.379 Y94.451 E1.88305
G1 X116.354 Y94.739 E1.89586
G1 X116.292 Y94.97 E1.90649
G1 X116.19 Y95.187 E1.91712
G1 X116.053 Y95.384 E1.92774
G1 X115.884 Y95.553 E1.93837
G1 X115.687 Y95.69 E1.949
G1 X115.47 Y95.792 E1.95962
G1 X115.239 Y95.854 E1.97025
G1 X114.951 Y95.879 E1.98306
G1 X65.049 Y95.879 E4.19645
G1 X64.761 Y95.854 E4.20926
G1 X64.53 Y95.792 E4.21989
G1 X64.313 Y95.69 E4.23051
G1 X64.117 Y95.553 E4.24114
G1 X63.947 Y95.383 E4.25177
G1 X63.81 Y95.187 E4.26239
G1 X63.708 Y94.97 E4.27302
G1 X63.646 Y94.739 E4.28365
G1 X63.621 Y94.451 E4.29646
G1 X63.621 Y89.549 E4.51389
G1 X63.646 Y89.261 E4.52669
G1 X63.708 Y89.03 E4.53732
G1 X63.81 Y88.813 E4.54795
G1 X63.947 Y88.616 E4.55857
G1 X64.116 Y88.447 E4.5692
G1 X64.313 Y88.31 E4.57983
G1 X64.53 Y88.208 E4.59045
G1 X64.761 Y88.146 E4.60108
G1 X65.049 Y88.121 E4.61389
G1 X95.171 Y88.121 E5.94993
G1 X95.698 Y87.875 E5.97575
G1 X95.383 Y87.63 F3000
G1 F600
G1 X103.67 Y83.766 E6.38132
G1 X114.967 Y83.766 E6.88239
G1 X115.301 Y83.795 E6.89726
G1 X115.592 Y83.873 E6.91065
G1 X115.866 Y84.001 E6.92404
G1 X116.113 Y84.174 E6.93742
G1 X116.326 Y84.387 E6.95081
G1 X116.499 Y84.634 E6.9642
G1 X116.627 Y84.908 E6.97758
G1 X116.705 Y85.199 E6.99097
G1 X116.734 Y85.533 E7.00585
G1 X116.734 Y94.467 E7.40207
G1 X116.705 Y94.801 E7.41695
G1 X116.627 Y95.092 E7.43034
G1 X116.499 Y95.366 E7.44372
G1 X116.326 Y95.613 E7.45711
G1 X116.113 Y95.826 E7.4705
G1 X115.866 Y95.999 E7.48388
G1 X115.592 Y96.127 E7.49727
G1 X115.301 Y96.205 E7.51066
G1 X114.967 Y96.234 E7.52553
G1 X65.033 Y96.234 E9.74031
G1 X64.699 Y96.205 E9.75518
G1 X64.408 Y96.127 E9.76857
G1 X64.134 Y95.999 E9.78196
G1 X63.887 Y95.826 E9.79534
G1 X63.674 Y95.613 E9.80873
G1 X63.501 Y95.366 E9.82212
G1 X63.373 Y95.092 E9.8355
G1 X63.295 Y94.801 E9.84889
G1 X63.266 Y94.467 E9.86377
